dist/img/28.svg

<svg version="1.1" xmlns="http://www.w3.org/2000/svg" xmlns:xlink="http://www.w3.org/1999/xlink" x="0px" y="0px" width="512px" height="512px"><path d="M253.4897766,460.0470276l198.8022766,51.9306641l56.4580383-204.80896l-28.9574585-53.9478149l29.4729614-54.440918L447.3163452-0.0222998L244.995285,49.9360695l-29.9660187,53.4547157h-62.4423065L2.7343984,253.2433167l149.8525543,149.8526001h61.4337158C227.2627716,426.0877991,243.8322754,457.0175171,253.4897766,460.0470276z M373.8581848,78.4004211c-0.9861755,1.9947433-86.4129028,149.8525848-86.4129028,149.8525848l-179.4581757-0.5054626c0,0,29.6280365-29.9536591,58.5854797-61.4213562c44.9602661-47.9411621,56.9511566-57.4442215,72.4384613-60.4475708c9.9961548-1.5016708,40.9707336-9.5030594,68.4265442-16.9889755C362.3715515,73.8954315,376.3460083,71.9006882,373.8581848,78.4004211z M429.2964478,119.3711853c2.4878235,8.9875641,36.9588623,134.8583221,36.9588623,134.8583221l-34.9641418,127.8655243c-3.9894714,14.9717712-9.4806519,24.9679565-11.4753723,22.4801331c-1.9947815-1.9947815-22.4801331-35.9726868-44.9602661-75.4193726c-27.4782104-47.963562-39.9621582-73.9177094-37.4519348-79.9243469c5.9842529-16.473465,79.9243469-145.3699951,83.4207764-145.8630676c1.5016479,0,5.4911804,7.4859009,8.4944763,15.9804001L429.2964478,119.3711853z M373.8469543,435.5273743c-0.9861755,0.9861755-152.8334961-37.4519653-152.8334961-37.4519653S111.6161728,285.1816711,111.123085,282.6938477c-1.0085831-3.0033569,175.8291321-1.9947815,175.8291321-1.9947815S376.3347778,433.5326538,373.8469543,435.5273743z"/></svg>

<svg xmlns="http://www.w3.org/2000/svg" width="512" height="512"><path d="M253.49 460.047l198.802 51.93L508.75 307.17l-28.957-53.948 29.473-54.441L447.316-.022l-202.32 49.958-29.967 53.455h-62.442L2.734 253.243l149.853 149.853h61.434c13.242 22.992 29.811 53.922 39.469 56.951zM373.858 78.4c-.986 1.995-86.413 149.853-86.413 149.853l-179.458-.505s29.628-29.954 58.586-61.422c44.96-47.941 56.95-57.444 72.438-60.447 9.996-1.502 40.97-9.503 68.427-16.99 54.934-14.994 68.908-16.988 66.42-10.489zm55.438 40.971c2.488 8.988 36.96 134.859 36.96 134.859L431.29 382.095c-3.99 14.972-9.48 24.968-11.475 22.48-1.995-1.995-22.48-35.973-44.96-75.42-27.479-47.963-39.963-73.917-37.452-79.924 5.984-16.473 79.924-145.37 83.42-145.863 1.502 0 5.492 7.486 8.495 15.98l-.023.023zm-55.449 316.156c-.986.987-152.834-37.452-152.834-37.452s-109.397-112.893-109.89-115.381c-1.008-3.004 175.83-1.995 175.83-1.995s89.382 152.834 86.894 154.828z"/></svg>
